X:1
T:A Curmudgeon's Farewell to Mount Vermin
M:6/8
L:1/8
K:G
 z4 zd/2-c/2| B3/2 A/2 B GDG| E3/2- F/2- G D2d/2-c/2| B3/2 A/2 G C3/2 D/2 E|\
 F2 ED zd/2-c/2| B3/2 A/2 B GDG| E3/2- F/2- G D2 B,| C/2 E3/2 G F3/2 G/2 A|\
 G3- G z D| D2 d c3/2 B/2 c| B3/2 A/2 B A3/2 G/2 A| GG,B, E3/2 F/2 E|\
 EFG F zd/2-c/2| B3/2 A/2 B GDG| E3/2- F/2- G D/2 B,3/2 D| CDE D/2 G3/2 F|\
 G4 z A| G3/2 G/2 G GAB| =F3/2 F/2 F FGA| E3/2 E/2 E AGE| D2 C B,2 D|\
 G3 GAB| E3 AGE| D/2 c3/2 E F3/2 E/2 D| G3 z2d/2-c/2| B3/2 A/2 B GDG|\
 E3/2- F/2- G D2d/2-c/2| B3/2 A/2 G C3/2 D/2 E| F2 ED zd/2-c/2| B3/2 A/2 B GDG|\
 E3/2- F/2- G D2 B,| C/2 E3/2 G F3/2 G/2 A| G3- G z z|
